X:1
T: Anna Campbell Holden
C:Muriel A Johnstone
R:Strathspey
%Q:128
K:A
M:4/4
L:1/16
|:E4|c4 B3A EA3 A4|d3c B2A2 F4 E4|c4 B3A EA3 A4|(3def (3efg (3aed (3cdB|
c4 B3A EA3 A4|d3c d2e2 f4 e4|A4 B3c eA3 A3G|(3FGA (3GAB A4 e2fg|
a3A B3c eA3 A3G|(3FAd f3a ec3 B3e|a3A B3c eA3 A3G|(3FB^d f3a ge3 e4|
a3A B3c eA3 (3ABc|d3c B2A2 F4 E4|c4 B3A EA3 A3c|(3def (3efg a4:|
